X: 7237
T: Clancy's
R: jig
M: 6/8
K: Dminor
|:A2d cBA|fga gec|ded cAF|GFG AFD|
A2d cBA|fga gec|ded cAG|1 Ad^c d2F:|2 Ad^c d2e||
|:fad fad|fga agf|egc egc|efg gfe|
fga gab|afd ecA|fed cAG|1 Ad^c d2e:|2 Ad^c d2F||

